X:103
T:T063B- Behind the Bush in the Garden
S:Aird's Airs, II (1782)
Q:1/4=120
L:1/8
M:6/8
K:G
d/c/|B2G B/c/dB|A2F A/B/cA|B2G B/c/dB|d3a2d/c/|B2G B/c/dB|\
A2G FED|G2c B/c/dB|G3G2::d/e/4f/4|gag fgf|e2dB3|gagf2g|\
a3 dc/B/|c2aB2g|ABG FED|GAB cAF|G3G2:|]

